X: 25611
T: Marquis Of Tullibardine's, The
R: slip jig
M: 9/8
K: Gminor
D|G2 G (B/c/d)G dBG|F2 F (A/B/c)F cAF|G2 G (B/c/d)B dBG|FDF (D/C/A,)A, G,2 D|
G2 G (B/c/d)B dBG|F2 F (A/B/c)F cAF|G2 G (B/c/d)B dBG|FDF (D/C/B,)A, G,2 d||
g2 d (g/a/b)a gdg|f2 c (f/g/a)g fcf|gdg (g/a/b)a gdg|fdf (c/A/F)G G2 d|
gdg (g/a/b)g gdg|fcf (f/g/a)g fcf|(g/a/b)a gdg fcf|(f/g/a)d cAF G2||

